icons/agent-16.svg

<svg width="16" height="16" viewBox="0 0 16 16" fill="none" xmlns="http://www.w3.org/2000/svg">
<path d="M14.5 8.90015V8.84839C14.4998 7.22247 13.1727 5.90015 11.542 5.90015C11.2152 5.90002 10.9178 5.70344 10.791 5.39917L10.6455 5.05054C10.103 3.74858 8.83134 2.90024 7.4209 2.90015H7.21484C4.99771 2.90015 3.26323 4.81166 3.47852 7.01831L3.49023 7.1394C3.52982 7.5452 3.26657 7.9193 2.87109 8.01831C2.06565 8.21967 1.5002 8.943 1.5 9.77319V9.91284C1.50014 11.0103 2.38981 11.9 3.4873 11.9001H4.5C4.91421 11.9001 5.25 12.2359 5.25 12.6501C5.25 13.0644 4.91421 13.4001 4.5 13.4001H3.4873C1.56138 13.4 0.000143534 11.8388 0 9.91284V9.77319C0.000178607 8.44946 0.785473 7.27353 1.96289 6.74976C1.90563 3.84013 4.25134 1.40015 7.21484 1.40015H7.4209C9.4185 1.40024 11.2197 2.5914 12.0068 4.42358C14.2445 4.6557 15.9998 6.54637 16 8.84839V8.90015C16 9.31436 15.6642 9.65015 15.25 9.65015C14.8358 9.65015 14.5 9.31436 14.5 8.90015Z" fill="#59636E"/>
<path d="M8.38045 7.67014L10.6302 9.9199C10.7709 10.0606 10.8498 10.2513 10.8498 10.4502C10.8498 10.6491 10.7709 10.8399 10.6302 10.9806L8.38045 13.2303C8.08755 13.5232 7.61268 13.5232 7.31979 13.2303C7.0269 12.9374 7.0269 12.4626 7.31979 12.1697L9.03922 10.4502L7.31979 8.7308C7.02689 8.43791 7.0269 7.96304 7.31979 7.67014C7.61268 7.37728 8.08756 7.37727 8.38045 7.67014Z" fill="#59636E"/>
<path d="M15 13.4501H12C11.5858 13.4501 11.25 13.1143 11.25 12.7001C11.25 12.2859 11.5858 11.9501 12 11.9501H15C15.4142 11.9501 15.75 12.2859 15.75 12.7001C15.75 13.1143 15.4142 13.4501 15 13.4501Z" fill="#59636E"/>
</svg>

<svg xmlns="http://www.w3.org/2000/svg" width="16" height="16" viewBox="0 0 16 16"><path d="M14.5 8.9v-.052A2.956 2.956 0 0 0 11.542 5.9a.815.815 0 0 1-.751-.501l-.145-.348A3.496 3.496 0 0 0 7.421 2.9h-.206a3.754 3.754 0 0 0-3.736 4.118l.011.121a.822.822 0 0 1-.619.879A1.81 1.81 0 0 0 1.5 9.773v.14c0 1.097.89 1.987 1.987 1.987H4.5a.75.75 0 0 1 0 1.5H3.487A3.487 3.487 0 0 1 0 9.913v-.14C0 8.449.785 7.274 1.963 6.75A5.253 5.253 0 0 1 7.215 1.4h.206a4.992 4.992 0 0 1 4.586 3.024A4.455 4.455 0 0 1 16 8.848V8.9a.75.75 0 0 1-1.5 0Z"/><path d="m8.38 7.67 2.25 2.25a.749.749 0 0 1 0 1.061L8.38 13.23a.749.749 0 1 1-1.06-1.06l1.719-1.72L7.32 8.731A.75.75 0 0 1 8.38 7.67ZM15 13.45h-3a.75.75 0 0 1 0-1.5h3a.75.75 0 0 1 0 1.5Z"/></svg>
